X:45
T: HERZ MEIN HERZ WARUM SO TRAURIG
N: B0530A
O: Europa, Mitteleuropa, Deutschland
R: Wander -, Heimat - Lied
M: 4/4
L: 1/8
K: F
AB | c3c=Bcdc | c=B_B2z2
BB | BGGEC2DE | F4z2
cc | fedcBAGF | EDD2z2
Bd | c3cc2de | f4
gfed | c3Ac2BE | F4z2

@@@ Tune index: 2263
